X: 37627
T: Snow Boots
R: reel
M: 4/4
K: Bminor
|:de|f2 df ed Bd|BA FA B2 de|f2 df bf af|fe df e2 de|
f2 df ed Bd|BA FA B2 Bc|1 dc Bd cB AB|c6:|2 dc Bd cB AF|B6 A2||
|:FB dc BA FE|Fd ed cB AG|FD fd ed cd|ed cB AG FE|
FB dc BA FE|Fd ed cB AG|FD fd eB dB|cB Ac B4:|

